X: 2062
T: DONALD QUAICH
C:
Q: "Reel."
R: Reel.
%R: reel
B: James Kerr "Merry Melodies" v.2 p.9 #62
Z: 2016 John Chambers <jc:trillian.mit.edu>
M: C
L: 1/8
%%slurgraces yes
%%graceslurs yes
K: Am
|:\
{AB}vc2(eA) B/B/B (dG) | {AB}c2(eA) aAeA |\
{AB}c2(eA) BcdG | cdeA B^GA2 ::\
{AB}c3ug B/B/B (dG) | {AB}c3g c/c/c (ge) |\
faeg dgBG | cdeA (B^G)A2 :|
